icons/evolvere-blue-folders-flat-vivid-dark-fallback/apps/64/popcorntime.svg

<?xml version="1.0" encoding="UTF-8" standalone="no"?>
<!-- Created with Inkscape (http://www.inkscape.org/) -->

<svg
   xmlns:dc="http://purl.org/dc/elements/1.1/"
   xmlns:cc="http://creativecommons.org/ns#"
   xmlns:rdf="http://www.w3.org/1999/02/22-rdf-syntax-ns#"
   xmlns:svg="http://www.w3.org/2000/svg"
   xmlns="http://www.w3.org/2000/svg"
   xmlns:xlink="http://www.w3.org/1999/xlink"
   xmlns:sodipodi="http://sodipodi.sourceforge.net/DTD/sodipodi-0.dtd"
   xmlns:inkscape="http://www.inkscape.org/namespaces/inkscape"
   width="64"
   height="64"
   id="svg13094"
   version="1.1"
   inkscape:version="0.48.4 r9939"
   sodipodi:docname="popcorntime.svg">
  <sodipodi:namedview
     id="base"
     pagecolor="#ffffff"
     bordercolor="#666666"
     borderopacity="1.0"
     inkscape:pageopacity="0"
     inkscape:pageshadow="2"
     inkscape:zoom="11.313708"
     inkscape:cx="35.959611"
     inkscape:cy="31.478712"
     inkscape:document-units="px"
     inkscape:current-layer="svg13094"
     showgrid="true"
     inkscape:snap-bbox="true"
     inkscape:bbox-paths="true"
     inkscape:bbox-nodes="true"
     inkscape:snap-bbox-edge-midpoints="true"
     inkscape:snap-bbox-midpoints="true"
     inkscape:object-paths="true"
     inkscape:snap-intersection-paths="true"
     inkscape:object-nodes="true"
     inkscape:snap-smooth-nodes="true"
     inkscape:snap-midpoints="true"
     inkscape:snap-object-midpoints="true"
     inkscape:snap-center="true"
     showguides="true"
     inkscape:guide-bbox="true"
     inkscape:window-width="1920"
     inkscape:window-height="1025"
     inkscape:window-x="-2"
     inkscape:window-y="32"
     inkscape:window-maximized="1"
     inkscape:snap-global="false"
     fit-margin-top="0"
     fit-margin-left="0"
     fit-margin-right="0"
     fit-margin-bottom="0"
     showborder="true"
     inkscape:showpageshadow="false"
     inkscape:snap-page="true">
    <inkscape:grid
       type="xygrid"
       id="grid3075"
       empspacing="5"
       visible="true"
       enabled="true"
       snapvisiblegridlinesonly="true"
       originx="1.6362304e-08px"
       originy="18px" />
  </sodipodi:namedview>
  <defs
     id="defs13096">
    <linearGradient
       inkscape:collect="always"
       id="linearGradient4341">
      <stop
         style="stop-color:#ffffff;stop-opacity:0"
         offset="0"
         id="stop4343" />
      <stop
         id="stop4349"
         offset="0.91990548"
         style="stop-color:#ffffff;stop-opacity:0" />
      <stop
         style="stop-color:#ffffff;stop-opacity:0.41577062"
         offset="1"
         id="stop4345" />
    </linearGradient>
    <linearGradient
       id="linearGradient4309">
      <stop
         style="stop-color:#724818;stop-opacity:0.08985133;"
         offset="0"
         id="stop4311" />
      <stop
         style="stop-color:#be7929;stop-opacity:0;"
         offset="1"
         id="stop4313" />
    </linearGradient>
    <linearGradient
       inkscape:collect="always"
       id="linearGradient4180">
      <stop
         style="stop-color:#a1aec9;stop-opacity:1"
         offset="0"
         id="stop4182" />
      <stop
         style="stop-color:#e0e7ea;stop-opacity:1"
         offset="1"
         id="stop4184" />
    </linearGradient>
    <linearGradient
       inkscape:collect="always"
       id="linearGradient4117">
      <stop
         style="stop-color:#ae243c;stop-opacity:1"
         offset="0"
         id="stop4119" />
      <stop
         style="stop-color:#d12e4b;stop-opacity:1"
         offset="1"
         id="stop4121" />
    </linearGradient>
    <linearGradient
       id="linearGradient4109">
      <stop
         style="stop-color:#f2e5d8;stop-opacity:0.65546221;"
         offset="0"
         id="stop4111" />
      <stop
         style="stop-color:#f2e4d7;stop-opacity:0;"
         offset="1"
         id="stop4113" />
    </linearGradient>
    <linearGradient
       inkscape:collect="always"
       id="linearGradient3981">
      <stop
         style="stop-color:#3b98dc;stop-opacity:0.31989247"
         offset="0"
         id="stop3983" />
      <stop
         style="stop-color:#2074b1;stop-opacity:0"
         offset="1"
         id="stop3985" />
    </linearGradient>
    <linearGradient
       inkscape:collect="always"
       id="linearGradient3963">
      <stop
         style="stop-color:#690900;stop-opacity:1;"
         offset="0"
         id="stop3965" />
      <stop
         style="stop-color:#690900;stop-opacity:0"
         offset="1"
         id="stop3967" />
    </linearGradient>
    <linearGradient
       id="linearGradient4291-9">
      <stop
         style="stop-color:#d42434;stop-opacity:1;"
         offset="0"
         id="stop4293-6" />
      <stop
         style="stop-color:#9a1d42;stop-opacity:1;"
         offset="1"
         id="stop4295-8" />
    </linearGradient>
    <radialGradient
       r="32"
       fy="20.133333"
       fx="32"
       cy="20.133333"
       cx="32"
       gradientTransform="matrix(1.65625,0,0,1.5527344,47.412584,-10.261719)"
       gradientUnits="userSpaceOnUse"
       id="radialGradient4012"
       xlink:href="#linearGradient4291-9"
       inkscape:collect="always" />
    <linearGradient
       inkscape:collect="always"
       xlink:href="#linearGradient3963"
       id="linearGradient4018"
       gradientUnits="userSpaceOnUse"
       x1="46.757439"
       y1="33.682796"
       x2="46.757439"
       y2="30.665916" />
    <linearGradient
       inkscape:collect="always"
       xlink:href="#linearGradient3981"
       id="linearGradient4020"
       gradientUnits="userSpaceOnUse"
       x1="43.221905"
       y1="29.705318"
       x2="46.051712"
       y2="29.705318" />
    <linearGradient
       inkscape:collect="always"
       xlink:href="#linearGradient3963"
       id="linearGradient4022"
       gradientUnits="userSpaceOnUse"
       x1="46.757439"
       y1="33.682796"
       x2="46.757439"
       y2="30.665916" />
    <linearGradient
       inkscape:collect="always"
       xlink:href="#linearGradient3981"
       id="linearGradient4024"
       gradientUnits="userSpaceOnUse"
       x1="43.221905"
       y1="29.705318"
       x2="46.051712"
       y2="29.705318" />
    <linearGradient
       inkscape:collect="always"
       xlink:href="#linearGradient4117"
       id="linearGradient4190"
       gradientUnits="userSpaceOnUse"
       x1="4"
       y1="63.877247"
       x2="4"
       y2="46.619839"
       gradientTransform="translate(68.412584,0)" />
    <linearGradient
       inkscape:collect="always"
       xlink:href="#linearGradient4180"
       id="linearGradient4194"
       gradientUnits="userSpaceOnUse"
       x1="12.000001"
       y1="64.125"
       x2="12.000001"
       y2="46.623215"
       gradientTransform="translate(68.412584,0)" />
    <linearGradient
       inkscape:collect="always"
       xlink:href="#linearGradient4309"
       id="linearGradient4315"
       x1="15.821515"
       y1="45.438446"
       x2="29.344933"
       y2="15.121242"
       gradientUnits="userSpaceOnUse" />
    <linearGradient
       inkscape:collect="always"
       xlink:href="#linearGradient4309"
       id="linearGradient4317"
       x1="15.821515"
       y1="45.438446"
       x2="29.344933"
       y2="15.121242"
       gradientUnits="userSpaceOnUse" />
    <linearGradient
       inkscape:collect="always"
       xlink:href="#linearGradient4309"
       id="linearGradient4319"
       x1="15.821515"
       y1="45.438446"
       x2="29.344933"
       y2="15.121242"
       gradientUnits="userSpaceOnUse" />
    <linearGradient
       inkscape:collect="always"
       xlink:href="#linearGradient4309"
       id="linearGradient4321"
       x1="15.821515"
       y1="45.438446"
       x2="29.344933"
       y2="15.121242"
       gradientUnits="userSpaceOnUse" />
    <linearGradient
       inkscape:collect="always"
       xlink:href="#linearGradient4309"
       id="linearGradient4323"
       x1="15.821515"
       y1="45.438446"
       x2="29.344933"
       y2="15.121242"
       gradientUnits="userSpaceOnUse" />
    <linearGradient
       inkscape:collect="always"
       xlink:href="#linearGradient4309"
       id="linearGradient4325"
       x1="15.821515"
       y1="45.438446"
       x2="29.344933"
       y2="15.121242"
       gradientUnits="userSpaceOnUse" />
    <linearGradient
       inkscape:collect="always"
       xlink:href="#linearGradient4309"
       id="linearGradient4327"
       x1="15.821515"
       y1="45.438446"
       x2="29.344933"
       y2="15.121242"
       gradientUnits="userSpaceOnUse" />
    <linearGradient
       inkscape:collect="always"
       xlink:href="#linearGradient4109"
       id="linearGradient4339"
       gradientUnits="userSpaceOnUse"
       x1="13.875001"
       y1="6.830822"
       x2="13.875001"
       y2="46.732903"
       gradientTransform="translate(68.412584,0)" />
    <radialGradient
       inkscape:collect="always"
       xlink:href="#linearGradient4341"
       id="radialGradient4347"
       cx="38.310154"
       cy="33.033386"
       fx="38.310154"
       fy="33.033386"
       r="29.619774"
       gradientTransform="matrix(1.1611189,-0.03229873,0.0268569,0.96548834,61.821469,1.9754198)"
       gradientUnits="userSpaceOnUse" />
  </defs>
  <metadata
     id="metadata13099">
    <rdf:RDF>
      <cc:Work
         rdf:about="">
        <dc:format>image/svg+xml</dc:format>
        <dc:type
           rdf:resource="http://purl.org/dc/dcmitype/StillImage" />
        <dc:title />
      </cc:Work>
    </rdf:RDF>
  </metadata>
  <g
     id="g3043"
     inkscape:export-filename="folder.png"
     inkscape:export-xdpi="90"
     inkscape:export-ydpi="90"
     transform="translate(-0.62500009,0.082283)" />
  <g
     id="scalable"
     transform="matrix(1.0385892,0,0,1.0385892,1214.7222,1878.8121)"
     inkscape:label="#g3701"
     style="fill:#ffffff" />
  <path
     id="path3069"
     d="m 0,4 0,30 0,28 2,2 30,0 30,0 2,-2 L 64,34 64,4 32,4 0,4 z"
     style="color:#000000;fill:#c81e4d;fill-opacity:1;fill-rule:nonzero;stroke:none;stroke-width:2.28571415000000000;marker:none;visibility:visible;display:inline;overflow:visible;enable-background:accumulate"
     inkscape:connector-curvature="0" />
  <path
     id="path3075"
     d="M 2,0 0,1 0,4 32,4 64,4 64,1 62,0 32,0 2,0 z"
     style="color:#000000;fill:#fa577b;fill-opacity:1;fill-rule:nonzero;stroke:none;stroke-width:2.28571415000000000;marker:none;visibility:visible;display:inline;overflow:visible;enable-background:accumulate"
     inkscape:connector-curvature="0" />
  <path
     id="path3077"
     d="M 0,3 0,6 2,4 z"
     style="fill:#f77e89;fill-opacity:1;fill-rule:nonzero"
     inkscape:connector-curvature="0"
     sodipodi:nodetypes="cccc" />
  <path
     inkscape:connector-curvature="0"
     style="fill:#e03a63;fill-opacity:1"
     id="path3081"
     d="M 64,6 62,4 64,3 z" />
  <path
     style="color:#000000;fill:#efcba0;fill-opacity:1;stroke:none;stroke-width:0.10000000000000001;marker:none;visibility:visible;display:inline;overflow:visible;enable-background:accumulate"
     d="M 40.84375 4.90625 C 33.169181 5.1899743 25.158154 9.5837062 21.3125 19.96875 C 17.545 1.1626253 -8.1035928 25.009607 11.0625 28.65625 C 1.8274291 28.959954 1.0255275 37.00547 7.34375 39.78125 C 7.1845033 40.377059 7.0962791 41.033097 7.0625 41.6875 C 7.0566 41.801867 7.033021 41.916176 7.03125 42.03125 C 6.9174589 43.139738 6.955831 44.137888 7.46875 44.8125 C 7.47424 44.8197 7.46315 44.83661 7.46875 44.84375 C 7.8970399 46.123367 8.6553379 47.284659 9.84375 48 L 26.6875 60.03125 L 57.28125 52.40625 C 62.445571 51.542619 62.317665 43.967837 57.625 41.71875 C 64.478845 40.263846 63.672245 31.049565 57.625 29.5625 C 57.416474 29.51122 57.220913 29.438461 57 29.40625 C 56.558174 29.34183 56.083946 29.32426 55.59375 29.34375 C 65.481489 15.416235 53.634698 4.4333761 40.84375 4.90625 z M 29.09375 33.53125 C 30.622062 33.75606 32.145781 33.65625 33.75 33.65625 C 35.354219 33.65625 36.846688 33.756058 38.375 33.53125 C 39.325468 33.53125 39.9375 34.459614 39.9375 35.15625 L 39.9375 37.625 C 39.9375 39.602633 37.684637 41.918479 35.875 42.34375 C 35.347792 42.46764 34.241585 42.5 33.75 42.5 C 33.258415 42.5 32.120958 42.467643 31.59375 42.34375 C 29.784113 41.918479 27.5625 39.602633 27.5625 37.625 L 27.5625 35.15625 C 27.5625 34.459614 28.143282 33.53125 29.09375 33.53125 z "
     id="path3087" />
  <g
     id="g3097" />
  <path
     inkscape:connector-curvature="0"
     style="color:#000000;fill:#b51b46;fill-opacity:1;fill-rule:nonzero;stroke:none;stroke-width:77.51100159000000644;marker:none;visibility:visible;display:inline;overflow:visible;enable-background:accumulate"
     d="m 4,46.625 c -2.216,0 -4,1.784 -4,4 L 0,62 2,64 8,64 8,50.625 c 0,-2.216 -1.784,-4 -4,-4 z m 16,0 c -2.216,0 -4,1.784 -4,4 L 16,64 l 8,0 0,-13.375 c 0,-2.216 -1.784,-4 -4,-4 z m 16,0 c -2.216,0 -4,1.784 -4,4 L 32,64 l 8,0 0,-13.375 c 0,-2.216 -1.784,-4 -4,-4 z m 16,0 c -2.216,0 -4,1.784 -4,4 L 48,64 l 8,0 0,-13.375 c 0,-2.216 -1.784,-4 -4,-4 z"
     id="path3127" />
  <path
     inkscape:connector-curvature="0"
     style="color:#000000;fill:#dae0e9;fill-opacity:1;fill-rule:nonzero;stroke:none;stroke-width:77.51100159000000644;marker:none;visibility:visible;display:inline;overflow:visible;enable-background:accumulate"
     d="m 12,46.625 c -2.216,0 -4,1.784 -4,4 L 8,64 l 8,0 0,-13.375 c 0,-2.216 -1.784,-4 -4,-4 z m 16,0 c -2.216,0 -4,1.784 -4,4 L 24,64 l 8,0 0,-13.375 c 0,-2.216 -1.784,-4 -4,-4 z m 16,0 c -2.216,0 -4,1.784 -4,4 L 40,64 l 8,0 0,-13.375 c 0,-2.216 -1.784,-4 -4,-4 z m 16,0 c -2.216,0 -4,1.784 -4,4 L 56,64 l 6,0 2,-2 0,-11.375 c 0,-2.216 -1.784,-4 -4,-4 z"
     id="path3131" />
  <g
     id="g3135">
    <path
       transform="matrix(1.1363637,0,0,1.1363637,-6.4001203,-4.0868843)"
       d="m 50.823303,29.970484 a 3.8890874,3.8890874 0 1 1 -7.778175,0 3.8890874,3.8890874 0 1 1 7.778175,0 z"
       sodipodi:ry="3.8890874"
       sodipodi:rx="3.8890874"
       sodipodi:cy="29.970484"
       sodipodi:cx="46.934216"
       id="path3137"
       style="color:#000000;fill:#fffac3;fill-opacity:0.27329748;stroke:none;stroke-width:0.1;marker:none;visibility:visible;display:inline;overflow:visible;enable-background:accumulate"
       sodipodi:type="arc" />
    <path
       sodipodi:type="arc"
       style="color:#000000;fill:#372c30;fill-opacity:1;stroke:none;stroke-width:0.10000000000000001;marker:none;visibility:visible;display:inline;overflow:visible;enable-background:accumulate"
       id="path3139"
       sodipodi:cx="46.934216"
       sodipodi:cy="29.970484"
       sodipodi:rx="3.8890874"
       sodipodi:ry="3.8890874"
       d="m 50.823303,29.970484 a 3.8890874,3.8890874 0 1 1 -7.778175,0 3.8890874,3.8890874 0 1 1 7.778175,0 z" />
    <path
       d="m 49.409089,28.556271 a 1.3258253,1.3258253 0 1 1 -2.651651,0 1.3258253,1.3258253 0 1 1 2.651651,0 z"
       sodipodi:ry="1.3258253"
       sodipodi:rx="1.3258253"
       sodipodi:cy="28.556271"
       sodipodi:cx="48.083263"
       id="path3145"
       style="color:#000000;fill:#dae0e9;fill-opacity:1;stroke:none;stroke-width:0.10000000000000001;marker:none;visibility:visible;display:inline;overflow:visible;enable-background:accumulate"
       sodipodi:type="arc" />
  </g>
  <g
     transform="translate(-26.162952,0)"
     id="g3151">
    <path
       sodipodi:type="arc"
       style="color:#000000;fill:#fffac3;fill-opacity:0.27329748;stroke:none;stroke-width:0.1;marker:none;visibility:visible;display:inline;overflow:visible;enable-background:accumulate"
       id="path3153"
       sodipodi:cx="46.934216"
       sodipodi:cy="29.970484"
       sodipodi:rx="3.8890874"
       sodipodi:ry="3.8890874"
       d="m 50.823303,29.970484 c 0,2.147883 -1.741204,3.889087 -3.889087,3.889087 -2.147884,0 -3.889088,-1.741204 -3.889088,-3.889087 0,-2.147884 1.741204,-3.889088 3.889088,-3.889088 2.147883,0 3.889087,1.741204 3.889087,3.889088 z"
       transform="matrix(1.1363637,0,0,1.1363637,-6.4001203,-4.0868843)" />
    <path
       d="m 50.823303,29.970484 c 0,2.147883 -1.741204,3.889087 -3.889087,3.889087 -2.147884,0 -3.889088,-1.741204 -3.889088,-3.889087 0,-2.147884 1.741204,-3.889088 3.889088,-3.889088 2.147883,0 3.889087,1.741204 3.889087,3.889088 z"
       sodipodi:ry="3.8890874"
       sodipodi:rx="3.8890874"
       sodipodi:cy="29.970484"
       sodipodi:cx="46.934216"
       id="path3155"
       style="color:#000000;fill:#372c30;fill-opacity:1;stroke:none;stroke-width:0.10000000000000001;marker:none;visibility:visible;display:inline;overflow:visible;enable-background:accumulate"
       sodipodi:type="arc" />
    <path
       sodipodi:type="arc"
       style="color:#000000;fill:#dae0e9;fill-opacity:1;stroke:none;stroke-width:0.10000000000000001;marker:none;visibility:visible;display:inline;overflow:visible;enable-background:accumulate"
       id="path3161"
       sodipodi:cx="48.083263"
       sodipodi:cy="28.556271"
       sodipodi:rx="1.3258253"
       sodipodi:ry="1.3258253"
       d="m 49.409089,28.556271 c 0,0.732233 -0.593592,1.325825 -1.325826,1.325825 -0.732233,0 -1.325825,-0.593592 -1.325825,-1.325825 0,-0.732234 0.593592,-1.325826 1.325825,-1.325826 0.732234,0 1.325826,0.593592 1.325826,1.325826 z" />
  </g>
  <g
     id="g3167" />
</svg>

<svg xmlns="http://www.w3.org/2000/svg" viewBox="0 0 64 64"><g color="#000"><path d="m0 4v30 28l2 2h30 30l2-2v-28-30h-32-32" fill="#c81e4d"/><path d="m2 0l-2 1v3h32 32v-3l-2-1h-30-30" fill="#fa577b"/></g><path d="m0 3v3l2-2z" fill="#f77e89"/><path d="m64 6l-2-2 2-1z" fill="#e03a63"/><g color="#000"><path d="m40.844 4.906c-7.675.284-15.686 4.677-19.531 15.06-3.767-18.806-29.416 5.04-10.25 8.688-9.235.304-10.04 8.349-3.719 11.125-.159.596-.247 1.252-.281 1.906-.006.114-.029.229-.031.344-.114 1.108-.075 2.107.438 2.781.005.007-.006.024 0 .031.428 1.28 1.187 2.441 2.375 3.156l16.844 12.03 30.594-7.625c5.164-.864 5.04-8.438.344-10.688 6.854-1.455 6.05-10.669 0-12.156-.209-.051-.404-.124-.625-.156-.442-.064-.916-.082-1.406-.063 9.888-13.928-1.959-24.91-14.75-24.438m-11.75 28.625c1.528.225 3.052.125 4.656.125 1.604 0 3.097.1 4.625-.125.95 0 1.563.928 1.563 1.625v2.469c0 1.978-2.253 4.293-4.063 4.719-.527.124-1.633.156-2.125.156-.492 0-1.629-.032-2.156-.156-1.81-.425-4.03-2.741-4.03-4.719v-2.469c0-.697.581-1.625 1.531-1.625" fill="#efcba0"/><path d="m4 46.625c-2.216 0-4 1.784-4 4v11.375l2 2h6v-13.375c0-2.216-1.784-4-4-4m16 0c-2.216 0-4 1.784-4 4v13.375h8v-13.375c0-2.216-1.784-4-4-4m16 0c-2.216 0-4 1.784-4 4v13.375h8v-13.375c0-2.216-1.784-4-4-4m16 0c-2.216 0-4 1.784-4 4v13.375h8v-13.375c0-2.216-1.784-4-4-4" fill="#b51b46"/><path d="m12 46.625c-2.216 0-4 1.784-4 4v13.375h8v-13.375c0-2.216-1.784-4-4-4m16 0c-2.216 0-4 1.784-4 4v13.375h8v-13.375c0-2.216-1.784-4-4-4m16 0c-2.216 0-4 1.784-4 4v13.375h8v-13.375c0-2.216-1.784-4-4-4m16 0c-2.216 0-4 1.784-4 4v13.375h6l2-2v-11.375c0-2.216-1.784-4-4-4" fill="#dae0e9"/><path transform="matrix(1.13636 0 0 1.13636-6.4-4.087)" d="m50.823303 29.970484a3.889087 3.889087 0 1 1 -7.778175 0 3.889087 3.889087 0 1 1 7.778175 0" fill="#fffac3" fill-opacity=".273"/><path d="m50.823303 29.970484a3.889087 3.889087 0 1 1 -7.778175 0 3.889087 3.889087 0 1 1 7.778175 0" fill="#372c30"/><path d="m49.40909 28.556271a1.325825 1.325825 0 1 1 -2.651651 0 1.325825 1.325825 0 1 1 2.651651 0" fill="#dae0e9"/><g transform="translate(-26.16)"><path d="m50.823 29.97c0 2.148-1.741 3.889-3.889 3.889-2.148 0-3.889-1.741-3.889-3.889 0-2.148 1.741-3.889 3.889-3.889 2.148 0 3.889 1.741 3.889 3.889" transform="matrix(1.13636 0 0 1.13636-6.4-4.087)" fill="#fffac3" fill-opacity=".273"/><path d="m50.823 29.97c0 2.148-1.741 3.889-3.889 3.889-2.148 0-3.889-1.741-3.889-3.889 0-2.148 1.741-3.889 3.889-3.889 2.148 0 3.889 1.741 3.889 3.889" fill="#372c30"/><path d="m49.41 28.556c0 .732-.594 1.326-1.326 1.326-.732 0-1.326-.594-1.326-1.326 0-.732.594-1.326 1.326-1.326.732 0 1.326.594 1.326 1.326" fill="#dae0e9"/></g></g></svg>
